!!!!SEGMENT: pl-kk--kk-i-2--007-005_anonim--missa-regina-caeli-agnus-dei.krn
!!!cenid: 16xx:1612
!!!COM: Anonim
!!!COM-rismID: pe30004985
!!!CDT:
!!!CNT:
!!!OPR: Missa Regina caeli
!!!OTL: Agnus Dei
!!!OMV: 005
!!!PDT:
!!!AGN: Sacred; Mass
!!!SMS-siglum: PL-Kk
!!!SMS-shelfmark: Kk.I.2
!!!SMS-shelfwork: 007-005 M
!!!NIFC-rismSourceID: 300258016
!!!NIFC-rismChildID: 300258023
!!!NIFC-islandoraID: pl-kk:750
!!!URL-pdf-islandora: https://repozytorium.nifc.pl/islandora/object/pl-kk%3A750/datastream/PDF/view
!!!URL-scan: https://polish.musicsources.pl/pl/lokalizacje/galeria/rekopisy/5828 @EN{Scan on Polish Music Sources Website} @PL{Skany w portalu Dziedzictwo Muzyki Polskiej w otwartym dostępie}
!!!ONB-nifc: Części mszy: Kyrie, Gloria, Credo, Sanctus, Agnus Dei; skany: C: 0024; A: 0124; T: 0228; B: 0326;
!!!AIN: 1 alto 1 bass 1 soprn 1 tenor
!!!key: F:lyd
**kern	**text	**kern	**text	**kern	**text	**text	**kern	**text
*part4	*part4	*part3	*part3	*part2	*part2	*part2	*part1	*part1
*staff4	*staff4	*staff3	*staff3	*staff2	*staff2	*staff2	*staff1	*staff1
*Ibass	*	*Itenor	*	*Ialto	*	*	*Isoprn	*
*I"Bassus	*	*I"Tenor	*	*I"Altus	*	*	*I"Cantus	*
*I'B	*	*I'T	*	*I'A	*	*	*I'S	*
*ICvox	*	*ICvox	*	*ICvox	*	*	*ICvox	*
*clefF4	*	*clefC4	*	*clefC4	*	*	*clefC3	*
*k[b-]	*	*k[b-]	*	*k[b-]	*	*	*k[b-]	*
*F:lyd	*	*F:lyd	*	*F:lyd	*	*	*F:lyd	*
*M2/1	*	*M2/1	*	*M2/1	*	*	*M2/1	*
*met(C|)	*	*met(C|)	*	*met(C|)	*	*	*met(C|)	*
=1-	=1-	=1-	=1-	=1-	=1-	=1-	=1-	=1-
*xywh-#326:1517,3128,6112,980	*	*xywh-#228:7645,2136,6732,1033	*	*xywh-#124:7659,1431,6470,2495	*	*	*xywh-#24:1235,1582,6320,960	*
2.F\	A-	0r	.	1r	.	.	0r	.
!LO:TX:t=P:problem=kreska pseudotaktowa	!	!	!	!	!	!	!	!
4F\	-Gnus	.	.	.	.	.	.	.
1G	De-	.	.	2.B-/	A-	.	.	.
!	!	!	!	!LO:TX:t=P:problem=kreska pseudotaktowa	!	!	!	!
.	.	.	.	4B-/	-gnus	.	.	.
=2-	=2-	=2-	=2-	=2-	=2-	=2-	=2-	=2-
2F\	-i	0r	.	1c	de-	.	0r	.
!LO:TX:t=P:problem=kreska pseudotaktowa	!	!	!	!	!	!	!	!
2F\	qui	.	.	.	.	.	.	.
2G\	tol-	.	.	2B-,\	-i	.	.	.
!	!	!	!	!LO:TX:t=P:problem=kreska pseudotaktowa	!	!	!	!
4G\	-lis	.	.	2B-\	qui	.	.	.
4G\	pec-	.	.	.	.	.	.	.
=3-	=3-	=3-	=3-	=3-	=3-	=3-	=3-	=3-
!	!	!LO:TX:t=P:problem=kreska pseudotaktowa	!	!	!	!	!LO:TX:t=P:problem=kreska pseudotaktowa	!
2A\	-ca-	0r	.	2c\	tol-	.	1r	.
!LO:TX:t=P:problem=kreska pseudotaktowa	!	!	!	!	!	!	!	!
2A\	-ta	.	.	4c\	-lis	.	.	.
!	!	!	!	!LO:TX:t=P:problem=kreska pseudotaktowa	!	!	!	!
.	.	.	.	4c\	pec-	.	.	.
2B-\	mu(n)-	.	.	2d\	-ca-	.	2.f\	A-
!	!	!	!	!LO:TX:t=P:problem=kreska pseudotaktowa	!	!	!	!
4BB-/	-di	.	.	2d\	-ta	.	.	.
!LO:TX:t=P:problem=kreska pseudotaktowa	!	!	!	!	!	!	!LO:TX:t=P:problem=kreska pseudotaktowa	!
4D/	pec-	.	.	.	.	.	4f\	-gnus
=4-	=4-	=4-	=4-	=4-	=4-	=4-	=4-	=4-
4C/	-ca-	2.c\	A-	1e-X	mu(n)-	.	1g	De-
4D/	-ta	.	.	.	.	.	.	.
2E-X\	mu(n)-	.	.	.	.	.	.	.
!	!	!LO:TX:t=P:problem=kreska pseudotaktowa	!	!	!	!	!	!
.	.	4c\	-gnus	.	.	.	.	.
1BB-	.	1d	De-	2d,\	-di	.	2f\	-i
!	!	!	!	!	!	!	!LO:TX:t=P:problem=kreska pseudotaktowa	!
.	.	.	.	2B-/	pec-	.	2f\	qui
=5-	=5-	=5-	=5-	=5-	=5-	=5-	=5-	=5-
!LO:TX:t=P:problem=kreska pseudotaktowa	!	!	!	!	!	!	!	!
1C	-di	2c\	-i	4e-X\	-ca-	.	2g\	tol-
.	.	.	.	4d,\	-ta	.	.	.
!	!	!	!	!LO:TX:t=P:problem=kreska pseudotaktowa	!	!	!	!
.	.	2c\	q(ui)	2c/	mun-	.	4g\	-lis
!	!	!	!	!	!	!	!LO:TX:t=P:problem=kreska pseudotaktowa	!
.	.	.	.	.	.	.	4c\	pe-
1r	.	2B-\	tol-	1G	-di	.	2.d\	-ca-
.	.	4B-\	-lis	.	.	.	.	.
!	!	!LO:TX:t=P:problem=kreska pseudotaktowa	!	!	!	!	!	!
.	.	4B-\	pe-	.	.	.	4e\	.
=6-	=6-	=6-	=6-	=6-	=6-	=6-	=6-	=6-
!	!	!	!	!LO:TX:t=P:problem=kreska pseudotaktowa	!	!	!	!
1F	mi-	2A\	-ca-	1r	.	.	4f\	.
.	.	.	.	.	.	.	4c\	-ta
.	.	2A\	-ta	.	.	.	1f	mu(n)-
1C	ſe-	2G/	mun-	1c	mi-	.	.	.
!	!	!	!	!	!	!	!LO:TX:t=P:problem=kreska pseudotaktowa	!
.	.	4G/	.	.	.	.	2e\	.
!	!	!LO:TX:t=P:problem=kreska pseudotaktowa	!	!	!	!	!	!
.	.	4G/	-di	.	.	.	.	.
=7-	=7-	=7-	=7-	=7-	=7-	=7-	=7-	=7-
*lig	*	*	*	*	*	*	*	*
!	!	!	!	!LO:TX:t=P:problem=kreska pseudotaktowa	!	!	!	!
1D	-re-	2B-\	pec-	1F	-se-	.	1f	.
.	.	2A/	-ca-	.	.	.	.	.
!LO:TX:t=P:problem=kreska pseudotaktowa	!	!	!	!	!	!	!	!
*	*	*	*	*lig	*	*	*	*
1Eny	.	1G	-ta	1G	-re-	.	0c	.
*Xlig	*	*	*	*	*	*	*	*
=8-	=8-	=8-	=8-	=8-	=8-	=8-	=8-	=8-
1F	-re	2F/	mun-	(1A	.	.	.	.
!	!	!LO:TX:t=P:problem=kreska pseudotaktowa	!	!	!	!	!	!
.	.	2c\	.	.	.	.	.	.
*	*	*	*	*Xlig	*	*	*	*
1D	no-	1F	.	2A\)	-re	.	1d	di
.	.	.	.	2B-\	.	.	.	.
=9-	=9-	=9-	=9-	=9-	=9-	=9-	=9-	=9-
!LO:TX:t=P:problem=kreska pseudotaktowa	!	!	!	!	!	!	!	!
*	*	*lig	*	*	*	*	*	*
1C	-bis	1G	.	2c/	.	.	2r	.
.	.	.	.	2G/	.	.	2g\	mi-
*	*	*	*	*custos:F	*	*	*	*
!	!	!	!	!LO:TX:t=P:problem=viz in Fine	!	!	!	!
!	!	!	!	!LO:TX:t=P:problem=kreska pseudotaktowa	!	!	!	!
2r	.	1A	.	1F	no-	.	1c	-se-
*custos:D	*	*	*	*	*	*	*	*
!LO:TX:t=P:problem=kreska pseudotaktowa	!	!	!	!	!	!	!	!
2F\	mi	.	.	.	.	.	.	.
*	*	*Xlig	*	*	*	*	*	*
!LO:LB:g=original	!	!	!	!LO:LB:g=original	!	!	!	!
=10-	=10-	=10-	=10-	=10-	=10-	=10-	=10-	=10-
*xywh-#326:1381,3919,6224,1293	*	*	*	*xywh-#124:7574,4345,6668,1219	*	*	*	*
*	*	*lig	*	*	*	*	*lig	*
!	!	!	!	!LO:TX:t=P:problem=fragment skreślony został pominięty i zastąpiony ostatnim systemem na stronie	!	!	!	!
2D/	ſe-	1B-	.	2F,/	-bis	.	1d	-re-
4G\	-re-	.	.	1G	mi-	.	.	.
!LO:TX:t=P:problem=kreska pseudotaktowa	!	!	!	!	!	!	!	!
4F\	.	.	.	.	.	.	.	.
4E\	.	1G	.	.	.	.	1e	.
4D/	.	.	.	.	.	.	.	.
!	!	!	!	!LO:TX:t=P:problem=kreska pseudotaktowa	!	!	!	!
4C/	.	.	.	(2c\	.	.	.	.
4BB-/	.	.	.	.	.	.	.	.
*	*	*Xlig	*	*	*	*	*Xlig	*
=11-	=11-	=11-	=11-	=11-	=11-	=11-	=11-	=11-
!	!	!LO:TX:t=P:problem=kreska pseudotaktowa	!	!	!	!	!	!
2AA/	.	0F	-di	2c\)	.	.	2f\	.
*	*	*	*	*	*	*	*custos:d	*
!	!	!	!	!	!	!	!LO:TX:t=P:problem=kreska pseudotaktowa	!
*	*	*	*	*	*	*	*	*
1D	-re	.	.	2A\	-se-	.	2f\	re
!	!	!	!	!LO:TX:t=P:problem=kreska pseudotaktowa	!	!	!	!
*	*	*	*	*	*	*	*xywh-#24:1247,2428,6280,874	*
.	.	.	.	(1A	-re-	.	1d	no-
1F\	no-	.	.	.	.	.	.	.
!	!	!	!	!	!	!	!LO:LB:g=original	!
=12-	=12-	=12-	=12-	=12-	=12-	=12-	=12-	=12-
.	.	1r	.	2A\)	.	.	1c	-bis
!LO:TX:t=P:problem=kreska pseudotaktowa	!	!	!	!	!	!	!	!
2E\	.	.	.	2G,/	-re	.	.	.
1D	.	2.F/	A-	2A\	no-	.	2r	.
!	!	!	!	!LO:TX:t=P:problem=kreska pseudotaktowa	!	!	!LO:TX:t=P:problem=kreska pseudotaktowa	!
.	.	.	.	(2F/	.	.	2f\	mi-
.	.	4F/	-gnus	.	.	.	.	.
=13-	=13-	=13-	=13-	=13-	=13-	=13-	=13-	=13-
!	!	!LO:TX:t=P:problem=kreska pseudotaktowa	!	!	!	!	!	!
1C,	-bis	1G	De-	2F/)	.	.	1c	-se-
!	!	!	!	!LO:TX:t=P:problem=kreska pseudotaktowa	!	!	!	!
.	.	.	.	2E/	.	.	.	.
!	!	!	!	!LO:TX:t=P:problem=kreska pseudotaktowa	!	!	!	!
2.F\	mi-	2F/	-i	1F,	-bis	.	2.c\	-re-
.	.	2F/	q(ui)	.	.	.	.	.
!LO:TX:t=P:problem=kreska pseudotaktowa	!	!	!	!	!	!	!	!
4F\	-ſe-	.	.	.	.	.	4d\	.
=14-	=14-	=14-	=14-	=14-	=14-	=14-	=14-	=14-
4E\	-re-	2G/	tol-	2.c\	mi-	.	1e	.
4D/	.	.	.	.	.	.	.	.
4C/	.	4G/	-lis	.	.	.	.	.
!	!	!	!	!LO:TX:t=P:problem=kreska pseudotaktowa	!	!	!	!
4BB-/	.	4G/	pec-	4c\	-ſe-	.	.	.
2AA/	.	2A\	-ca-	4A/	-re-	.	2f\	.
.	.	.	.	4G/	.	.	.	.
*	*	*custos:B-	*	*	*	*	*	*
!	!	!LO:TX:t=P:problem=kreska pseudotaktowa	!	!	!	!	!	!
!LO:TX:t=P:problem=kreska pseudotaktowa	!	!	!	!	!	!	!LO:TX:t=P:problem=kreska pseudotaktowa	!
2FF/	-re	2A\	-ta	4F/	.	.	2f\	re
.	.	.	.	4E/	.	.	.	.
!	!	!LO:LB:g=original	!	!	!	!	!	!
=15-	=15-	=15-	=15-	=15-	=15-	=15-	=15-	=15-
*	*	*xywh-#228:7631,3019,6656,944	*	*	*	*	*	*
1BB-X	no-	2.B-\	mun-	2F,/	-re	.	1d	no-
!	!	!	!	!LO:TX:t=P:problem=kreska pseudotaktowa	!	!	!	!
.	.	.	.	2G/	no-	.	.	.
!	!	!LO:TX:t=P:problem=kreska pseudotaktowa	!	!	!	!	!	!
.	.	4A\	.	.	.	.	.	.
2C/	.	2G/	.	2E,/	-bis	.	2c/	.
!LO:TX:t=P:problem=kreska pseudotaktowa	!	!	!	!	!	!	!	!
2D/	.	2F/	.	2F/	A-	.	4A/	.
!	!	!	!	!	!	!	!LO:TX:t=P:problem=kreska pseudotaktowa	!
.	.	.	.	.	.	.	4B-/	.
=16-	=16-	=16-	=16-	=16-	=16-	=16-	=16-	=16-
4C,/	-bis	2.c\	.	2G/	-gnus	.	4c\	.
2C/	A-	.	.	.	.	.	4d\	.
!	!	!	!	!LO:TX:t=P:problem=kreska pseudotaktowa	!	!	!	!
.	.	.	.	2G/	De-	.	2e\	.
!LO:TX:t=P:problem=kreska pseudotaktowa	!	!	!	!	!	!	!	!
4C/	-gnus	4B-\	.	.	.	.	.	.
1D	De-	4A\	.	2F,/	-i	.	2A/	-bis
.	.	4G/	.	.	.	.	.	.
!	!	!LO:TX:t=P:problem=kreska pseudotaktowa	!	!LO:TX:t=P:problem=kreska pseudotaktowa	!	!	!	!
.	.	2F/	.	2F/	qui	.	2d\	mi-
=17-	=17-	=17-	=17-	=17-	=17-	=17-	=17-	=17-
2C/	-i	2c\	.	2G/	tol-	.	2G/	-se-
!	!	!	!	!	!	!	!LO:TX:t=P:problem=kreska pseudotaktowa	!
2C/	qui	2G/	.	4G/	-lis	.	2c/	-re-
!	!	!	!	!LO:TX:t=P:problem=kreska pseudotaktowa	!	!	!	!
.	.	.	.	4G/	.	.	.	.
2D/	tol-	1d	.	2F\	pe-	.	2.A/	-re
4D/	-lis	.	.	2A\	-ca-	.	.	.
!LO:TX:t=P:problem=kreska pseudotaktowa	!	!	!	!	!	!	!	!
4D/	pec-	.	.	.	.	.	4B-/	.
=18-	=18-	=18-	=18-	=18-	=18-	=18-	=18-	=18-
!	!	!LO:TX:t=P:problem=kreska pseudotaktowa	!	!	!	!	!	!
2E\	-ca-	1c	-di	2G/	-ta	.	2c/	no-
*custos:F	*	*	*	*	*	*	*	*
!LO:TX:t=P:problem=kreska pseudotaktowa	!	!	!	!	!	!	!	!
!	!	!	!	!LO:TX:t=P:problem=kreska pseudotaktowa	!	!	!	!
2E\	-ta	.	.	(2B-	mun-	.	2G/	-bis
1F	mun-	2r	.	2B-)	.	.	2.c/	A-
.	.	2c\	mi-	2A/	-di	.	.	.
!	!	!	!	!	!	!	!LO:TX:t=P:problem=kreska pseudotaktowa	!
.	.	.	.	.	.	.	4c/	-gnus
!LO:LB:g=original	!	!	!	!	!	!	!	!
=19-	=19-	=19-	=19-	=19-	=19-	=19-	=19-	=19-
*xywh-#326:7531,460,6726,1252	*	*	*	*	*	*	*	*
!	!	!	!	!LO:TX:t=P:problem=kreska pseudotaktowa	!	!	!	!
!	!	!	!	!LO:TX:a:t=2	!	!	!	!
1.D	di	1F	-ſe-	0r	.	.	1d	de-
*	*	*lig	*	*	*	*	*	*
.	.	1G	-re-	.	.	.	2d,\	-i
*	*	*	*	*	*	*	*custos:f	*
!	!	!	!	!	!	!	!LO:TX:t=P:problem=kreska pseudotaktowa	!
!LO:TX:t=P:problem=kreska pseudotaktowa	!	!	!	!	!	!	!	!
2BB-/	mi-	.	.	.	.	.	2d\	qui
!	!	!	!	!	!	!	!LO:LB:g=original	!
=20-	=20-	=20-	=20-	=20-	=20-	=20-	=20-	=20-
*	*	*	*	*	*	*	*xywh-#24:1241,3034,6291,1102	*
!	!	!	!	!	!	!	!LO:TX:t=P:problem=przed 2f skreślone 2B-	!
1FF	-ſe-	1A	.	2r	.	.	2f\	tol-
.	.	.	.	2A/	mi-	Do-	4f\	-lis
.	.	.	.	.	.	.	4e\	pec-
*lig	*	*Xlig	*	*	*	*	*	*
1GG	-re-	1B-	.	1D	-se-	.	2d\	-ca-
!	!	!	!	!	!	!	!LO:TX:t=P:problem=kreska pseudotaktowa	!
.	.	.	.	.	.	.	2B-/	-ta
=21-	=21-	=21-	=21-	=21-	=21-	=21-	=21-	=21-
1AA	.	2.F/	.	(2C/	-re-	-na	2.A/	mun-
.	.	.	.	2c\)	.	no-	.	.
!	!	!	!	!	!	!	!LO:TX:t=P:problem=kreska pseudotaktowa	!
!	!	!LO:TX:t=P:problem=kreska pseudotaktowa	!	!	!	!	!	!
.	.	4E/	-re	.	.	.	4G/	.
*Xlig	*	*	*	*	*	*	*	*
!	!	!	!	!LO:TX:a:t=l	!	!	!	!
1BB-	.	4D/	.	1B-	-re	-bis	4F/	.
.	.	4C/	.	.	.	.	4E/	.
!	!	!	!	!	!	!	!LO:TX:t=P:problem=kreska pseudotaktowa	!
.	.	2D/	.	.	.	.	2F/	.
=22-	=22-	=22-	=22-	=22-	=22-	=22-	=22-	=22-
!	!	!	!	!LO:TX:t=P:problem=kreska pseudotaktowa	!	!	!	!
!LO:TX:t=P:problem=kreska pseudotaktowa	!	!	!	!	!	!	!	!
1GG	.	1G	no-	1B-	.	do-	1B-	-di
1FF	-re	2.A\	.	2.F/	mi-	-na	2.c\	mi-
.	.	4B-\	.	4F/	-ſe-	no-	4d\	-se-
=23-	=23-	=23-	=23-	=23-	=23-	=23-	=23-	=23-
0C	no-	2c\	.	2G/	-re-	-bis	2en\	-re-
!	!	!LO:TX:t=P:problem=kreska pseudotaktowa	!	!	!	!	!LO:TX:t=P:problem=kreska pseudotaktowa	!
.	.	2A\	.	1F	-re	pa-	2f\	-re
.	.	1G	.	.	.	.	1g	no-
!	!	!	!	!LO:TX:t=P:problem=kreska pseudotaktowa	!	!	!	!
.	.	.	.	2E/	no-	.	.	.
=24-	=24-	=24-	=24-	=24-	=24-	=24-	=24-	=24-
0FF	-bis	0A	-bis.	0F;	-bis	-cem	0f;	-bis.
!LO:TX:a:t=Agnus 2dum ut Et Incarnato\nagnus 3tium ut Annum	!	!	!	!	!	!	!	!
=-	=-	=-	=-	=-	=-	=-	=-	=-
*-	*-	*-	*-	*-	*-	*-	*-	*-
!!!system-decoration: [(s1,s2,s3,s4)]
!!!ENC: Marta Opryszak
!!!END: 2022-01-14
!!!ENC: Urszula Świątek
!!!END: 2022-01-21
!!!IIIF: https://repozytorium.nifc.pl/islandora/object/pl-kk%3A750/datastream/IIIF/view
!!!ENC-iiif: Jan Barakat
!!!END-iiif: 2022-09-03
!!!YEC: Copyright 2022 Narodowy Instytut Fryderyka Chopina (https://polishscores.org)
!!!YEM: License CC-BY-4.0 (https://creativecommons.org/licenses/by/4.0)
